X:1
L:1/4
Q:1/4=200
M:6/8
V:1
V:2 clef=bass
K:F
[V:1] [Ace]3/4 z/4 [Ace]3/4 z/4 [Ad]/[Gc]/ | [Ac]/[Ad]3/4 z3/4 A/c/ | [FBd]3/4 z/4 [FBd]3/4 z/4 [Bd]/[Be]/ | [Acf]3/4 z/4 [Acf]3/4 z/4 [cf]/[cg]/ |
[V:2] [A,,,A,,]3/4 z3/4 [A,,,A,,]3/4 z3/4 | [D,,D,]3/4 z3/4 [D,,D,]3/4 z3/4 | [B,,,B,,]3/4 z3/4 [B,,,B,,]3/4 z3/4 | [F,,,F,,]3/4 z3/4 [F,,,F,,]3/4 z3/4 |